X: 20491
Q: "With spirit."
M: C
L: 1/8
K: D
g>fe>d e>dc>B | (A4 F2)B>A |\
g6 d>d | ^g6 g>g | a2f>d [1 A>cd>e | f6 :|\
[2 A>AB>c | "^Fin."d6 H|] [K:=c] [K:G] G>B |\
d2G>B d2B>g | b4 a>gf>e |
d2e>d c2d>c | B>AG>B A2d>d |\
d2B>g g2d>b | b6 a>g |\
(fbb)g (fe)(^cd) | B6 E2 |\
E>FG>A B>^cd>e | f6 e>d |\
e6 d>B | "^D.C."A6 |]


